X:1
T:Title
%%score { ( 1 3 4 ) | ( 2 5 ) }
L:1/8
M:8/4
K:G
V:1 treble nm="Grand Piano"
V:3 treble 
V:4 treble 
V:2 treble 
V:5 treble 
V:1
 z4[Q:1/4=204] d4 | c4 [FA]4 _B4 A2 G2 | _B8 z8 | G4 G4 [^DA]4 [=D_B]4 | A8 z8 | z8 _B8 | %6
 z4 c4 z8 | [G_B]4 [Ad]4 [Gc]4 z2 G,2 | A4 .[DA]4 [G,DG]4 [G,=FG]4 | [G,^DG]4 D4 =D4 G4 | %10
 G4 ^D4[K:bass] z8 | [G,D]4 [F,CD]4[K:treble] G,2- [G,B]2 A2 G2 | %12
[M:6/4] d3- [Fd-]/[Ed-]/ [Fd]2 [Fc]2 [DGB]4 |] %13
V:2
 z4 [_B,DG]4 | [A,^DG]4[K:bass] [D,=D]4 [G,DG]4 [E,G,^C]4 | [D,G,D]4 [D,F,]4 [_B,,G,]4 [=F,G,D]4 | %3
 [^D,G,C]4 [=D,_B,D]4 [C,A,]4 [G,,G,]4 | [A,,F,]4 E,2 A,2 [D,A,D]4 [C,A,]4 | %5
 [_B,,G,]4 [D,F,D]4 [G,D]4 [=F,_B,]4 | z2[K:treble] _B2[K:bass] [^D,A,]4 [=D,A,]4 z2 [F,D]2 | %7
 [G,D]4 [=F,A,]4 [^D,C]4 .[C,C]4 | [D,G,D]4 z2[K:treble] _B2[K:bass] _B,,4 =B,,4 | %9
 C,4 [^D,G,C]4 [G,_B,]4 [=F,=B,D]4 | C2 _B,2 [A,C]2 G,2 =D,4 C,4 | %11
 B,,4 A,,4 z2 D2 [E,^C]2- [E,A,C]2 |[M:6/4] B,3 A,/G,/ A,2 [D,D]2 [G,,G,]4 |] %13
V:3
 x8 | x16 | z4 z2 A2 [DG]4 G4 | x16 | D4 z2 G2 F4 D4 | [DG]4 A4 z4 z2 A2 | %6
 .[^DGc]4 A2 G2 [Fd]4 z2 [Ac]2 | z8 z4 [^DA]4 | x16 | x16 | %10
 z2 D2 z2[K:bass] _B,2 [F,A,=D]4 [F,D]4 | z8[K:treble] .[_B,D]4 z4 |[M:6/4] .G6 z6 |] %13
V:4
 x8 | x16 | z4 D4 z8 | x16 | z4 ^C4 z8 | z8 z4 G4 | x16 | x16 | x16 | x16 | x6[K:bass] x10 | %11
 x8[K:treble] x8 |[M:6/4] x12 |] %13
V:5
 x8 | x4[K:bass] x12 | x16 | x16 | z4 A,,4 z8 | x16 | ^D,4[K:treble][K:bass] z4 z8 | x16 | %8
 z4 [C,F,]4[K:treble][K:bass] z8 | x16 | ^D,4 C,4 z8 | z8 G,,4 .G,4 |[M:6/4] D,6 z6 |] %13

